X: 11734
T: Eleanor Neary's
R: jig
M: 6/8
K: Dmixolydian
|:DFA GFE|EDD CDE|=FEF GFG|A/B/cA dAF|
DFA GFE|EDD CDE|=FAc GEC|D/E/D^C D2 A,:|
|:DFA dAA|BAB AFD|DFA dAA|B/^c/dB ABc|
dBd cAc|BGB AFD|DFA G/F/EC|1 DED D2A,:|2 DED D3||

